X:320
T:Untitled RH.320
R:reel
S:Rev.R.Harrison’s MS,c1815,Cumbria
O:England
A:Temple Sowerby,Cumbria
Z:vmp.Simon Wilson. Review PJH, 2008.
M:4/4
L:1/8
Q:2/4=90
K:G
DGBG AGBG|AGAB cBcd|de/f/ gf edcB|dBgB B2A2|!
DGBG AGBG|AGAB cdef|de/f/ ga bgdB|AGAB G2G2:|!
|:gfga bgfg|egdg cgBg|AGAB cBcd|eac’a gfed|!
gfga bgfg|egdg cgBg|AGAB cedc|BAGF G2G2:|

